X:10
T: Halewyn
N: A0015B
O: Europa, Mitteleuropa, Brabant
N: Melodie  1836 mitgeteilt
R: Romanze, Ballade, Lied
M: 6/8
L: 1/8
K: C
_B,A,B, | C3D3 | C2_B,A,2
A, | _B,2A,G,2A, | _B,2CD3 | z2
D_E2D | C3D3 | C2B,C3 | z3

@@@ Tune index: 10
